images_sukapura_svg/cmd/lc_printlayout.svg

<svg height="24" viewBox="0 0 6.3499999 6.3500002" width="24" xmlns="http://www.w3.org/2000/svg" xmlns:xlink="http://www.w3.org/1999/xlink"><linearGradient id="a" gradientUnits="userSpaceOnUse" x1="4.233334" x2="4.233334" y1="294.08957" y2="289.85623"><stop offset="0" stop-color="#4680ce"/><stop offset="1" stop-color="#5ea0ee"/></linearGradient><linearGradient id="b" gradientUnits="userSpaceOnUse" x1="4.233334" x2="4.233334" y1="294.08957" y2="295.01562"><stop offset="0" stop-color="#b0b0b0"/><stop offset=".49999985" stop-color="#cecece"/><stop offset=".75000322" stop-color="#f4f4f4"/><stop offset=".75000322" stop-color="#e5e5e5"/><stop offset="1" stop-color="#fff"/></linearGradient><radialGradient id="c" cx="10.994179" cy="4.42844" gradientTransform="matrix(1.4 .00000004 -.00000001 1.2 -4.39185 -2.314129)" gradientUnits="userSpaceOnUse" r="5"><stop offset="0" stop-color="#d7d7d7"/><stop offset=".49894297" stop-color="#f7f7f7"/><stop offset="1" stop-color="#fff"/></radialGradient><linearGradient id="d" gradientUnits="userSpaceOnUse" x1="10" x2="11.500001" y1="4" y2="2.499999"><stop offset="0" stop-color="#fff"/><stop offset=".77967989" stop-color="#f1f1f1"/><stop offset="1" stop-color="#d5d5d5"/></linearGradient><g transform="translate(-1.058333 -289.591653)"><path d="m1.5875 290.12082h5.291667v3.704168h-5.291667z" fill="#2c2c2c"/><path d="m2.116667 290.64999h4.233333v2.64582h-4.233333z" fill="url(#a)"/><path d="m3.571875 293.95728-.0000004.52915-.5291666.26459.0000006.26457 2.3812498.00002-.0000004-.26459-.5291667-.26459.0000004-.52915z" fill="url(#b)" stroke="#959595" stroke-width=".264583"/></g><g transform="matrix(.26458333 0 0 .26458333 2.645834 2.11667)"><path d="m3 1v14h10v-11.2949219l-2.695312-2.7050781z" fill="url(#c)"/><path d="m3 0c-.554 0-1 .446-1 1v14c0 .554.446 1 1 1h10c.554 0 1-.446 1-1v-10.5-.8632812l-3.636719-3.6367188h-.863281zm0 1h6v3.5c0 .277.223.5.5.5h3.5v10h-10zm7 0 3 3h-3z" fill="#98989d"/><path d="m10 1 3 3h-3z" fill="url(#d)"/></g></svg>

<?xml version="1.0" encoding="UTF-8" standalone="no"?>
<!-- Created with Inkscape (http://www.inkscape.org/) -->

<svg
   xmlns:dc="http://purl.org/dc/elements/1.1/"
   xmlns:cc="http://creativecommons.org/ns#"
   xmlns:rdf="http://www.w3.org/1999/02/22-rdf-syntax-ns#"
   xmlns:svg="http://www.w3.org/2000/svg"
   xmlns="http://www.w3.org/2000/svg"
   xmlns:xlink="http://www.w3.org/1999/xlink"
   xmlns:sodipodi="http://sodipodi.sourceforge.net/DTD/sodipodi-0.dtd"
   xmlns:inkscape="http://www.inkscape.org/namespaces/inkscape"
   width="24"
   height="24"
   viewBox="0 0 6.3499999 6.3500002"
   version="1.1"
   id="svg922"
   inkscape:version="0.92.3 (unknown)"
   sodipodi:docname="lc_printlayout.svg">
  <defs
     id="defs916">
    <linearGradient
       inkscape:collect="always"
       xlink:href="#linearGradient844"
       id="linearGradient846"
       x1="4.2333336"
       y1="294.08957"
       x2="4.2333336"
       y2="289.85623"
       gradientUnits="userSpaceOnUse" />
    <linearGradient
       inkscape:collect="always"
       id="linearGradient844">
      <stop
         style="stop-color:#4680ce;stop-opacity:1;"
         offset="0"
         id="stop840" />
      <stop
         style="stop-color:#5ea0ee;stop-opacity:1"
         offset="1"
         id="stop842" />
    </linearGradient>
    <linearGradient
       inkscape:collect="always"
       xlink:href="#linearGradient852"
       id="linearGradient854"
       x1="4.2333336"
       y1="294.08957"
       x2="4.2333336"
       y2="295.01562"
       gradientUnits="userSpaceOnUse" />
    <linearGradient
       inkscape:collect="always"
       id="linearGradient852">
      <stop
         style="stop-color:#b0b0b0;stop-opacity:1;"
         offset="0"
         id="stop848" />
      <stop
         id="stop860"
         offset="0.49999985"
         style="stop-color:#cecece;stop-opacity:1" />
      <stop
         id="stop856"
         offset="0.75000322"
         style="stop-color:#f4f4f4;stop-opacity:1" />
      <stop
         style="stop-color:#e5e5e5;stop-opacity:1"
         offset="0.75000322"
         id="stop858" />
      <stop
         style="stop-color:#ffffff;stop-opacity:1"
         offset="1"
         id="stop850" />
    </linearGradient>
    <radialGradient
       id="b"
       cx="10.994179"
       cy="4.4284401"
       gradientTransform="matrix(1.4,4e-8,-1e-8,1.2,-4.39185,-2.314129)"
       gradientUnits="userSpaceOnUse"
       r="5">
      <stop
         offset="0"
         stop-color="#d7d7d7"
         id="stop9" />
      <stop
         offset=".49894297"
         stop-color="#f7f7f7"
         id="stop11" />
      <stop
         offset="1"
         stop-color="#fff"
         id="stop13" />
    </radialGradient>
    <linearGradient
       id="a"
       gradientUnits="userSpaceOnUse"
       x1="10"
       x2="11.500001"
       y1="4"
       y2="2.4999993">
      <stop
         offset="0"
         stop-color="#fff"
         id="stop2" />
      <stop
         offset=".77967989"
         stop-color="#f1f1f1"
         id="stop4" />
      <stop
         offset="1"
         stop-color="#d5d5d5"
         id="stop6" />
    </linearGradient>
  </defs>
  <sodipodi:namedview
     id="base"
     pagecolor="#ffffff"
     bordercolor="#666666"
     borderopacity="1.0"
     inkscape:pageopacity="0.0"
     inkscape:pageshadow="2"
     inkscape:zoom="19.916667"
     inkscape:cx="12.151714"
     inkscape:cy="12.363806"
     inkscape:document-units="mm"
     inkscape:current-layer="layer1"
     showgrid="true"
     units="px"
     inkscape:window-width="1366"
     inkscape:window-height="699"
     inkscape:window-x="0"
     inkscape:window-y="0"
     inkscape:window-maximized="1">
    <inkscape:grid
       type="xygrid"
       id="grid1467"
       spacingx="0.13229167"
       spacingy="0.13229167"
       empspacing="2" />
  </sodipodi:namedview>
  <metadata
     id="metadata919">
    <rdf:RDF>
      <cc:Work
         rdf:about="">
        <dc:format>image/svg+xml</dc:format>
        <dc:type
           rdf:resource="http://purl.org/dc/dcmitype/StillImage" />
        <dc:title></dc:title>
      </cc:Work>
    </rdf:RDF>
  </metadata>
  <g
     inkscape:label="Layer 1"
     inkscape:groupmode="layer"
     id="layer1"
     transform="translate(0,-290.64998)">
    <g
       transform="translate(-1.0583333,1.0583266)"
       id="g865">
      <rect
         y="290.12082"
         x="1.5875"
         height="3.7041676"
         width="5.291667"
         id="rect834"
         style="opacity:1;fill:#2c2c2c;fill-opacity:1;stroke:none;stroke-width:0.26458332;stroke-linecap:round;stroke-linejoin:round;stroke-miterlimit:4;stroke-dasharray:none;stroke-opacity:0" />
      <rect
         y="290.64999"
         x="2.1166666"
         height="2.6458204"
         width="4.2333326"
         id="rect836"
         style="opacity:1;fill:url(#linearGradient846);fill-opacity:1;stroke:none;stroke-width:0.26458332;stroke-linecap:round;stroke-linejoin:round;stroke-miterlimit:4;stroke-dasharray:none;stroke-opacity:0" />
      <path
         sodipodi:nodetypes="ccccccccc"
         inkscape:connector-curvature="0"
         id="path838"
         d="m 3.571875,293.95728 -4e-7,0.52915 -0.5291666,0.26459 6e-7,0.26457 2.3812498,2e-5 -4e-7,-0.26459 -0.5291667,-0.26459 4e-7,-0.52915 z"
         style="fill:url(#linearGradient854);fill-opacity:1;stroke:#959595;stroke-width:0.26458332px;stroke-linecap:butt;stroke-linejoin:miter;stroke-opacity:1" />
    </g>
    <g
       transform="matrix(0.26458333,0,0,0.26458333,2.6458335,292.76665)"
       id="g838">
      <path
         style="fill:url(#b)"
         inkscape:connector-curvature="0"
         id="path16"
         d="M 3,1 V 15 H 13 V 3.7050781 L 10.304688,1 Z" />
      <path
         style="fill:#98989d"
         inkscape:connector-curvature="0"
         id="path18"
         d="M 3,0 C 2.446,0 2,0.446 2,1 v 14 c 0,0.554 0.446,1 1,1 h 10 c 0.554,0 1,-0.446 1,-1 V 4.5 3.6367188 L 10.363281,0 H 9.5 Z M 3,1 H 9 V 4.5 C 9,4.777 9.223,5 9.5,5 H 13 V 15 H 3 Z m 7,0 3,3 h -3 z" />
      <path
         style="fill:url(#a)"
         inkscape:connector-curvature="0"
         id="path20"
         d="m 10,1 3,3 h -3 z" />
    </g>
  </g>
</svg>
